svg/misc/like.svg

<?xml version="1.0" encoding="UTF-8"?>
<svg xmlns="http://www.w3.org/2000/svg" xmlns:xlink="http://www.w3.org/1999/xlink" width="24" height="24" viewBox="0 0 24 24" version="1.1">
<g id="surface1">
<path style=" stroke:none;fill-rule:evenodd;fill:rgb(0%,0%,0%);fill-opacity:1;" d="M 12.074219 9.640625 L 13.421875 7.03125 C 13.859375 6.164062 14.449219 5.378906 15.160156 4.703125 C 15.933594 3.929688 16.996094 3.484375 18.109375 3.460938 C 20.574219 3.429688 22.601562 5.335938 22.636719 7.71875 C 22.636719 9.488281 21.800781 10.734375 19.816406 12.636719 C 19.308594 13.125 18.730469 13.652344 18.085938 14.230469 C 15.972656 16.101562 13.964844 18.078125 12.074219 20.160156 C 10.179688 18.078125 8.171875 16.101562 6.058594 14.230469 C 5.414062 13.648438 4.835938 13.121094 4.328125 12.636719 C 2.34375 10.730469 1.507812 9.484375 1.507812 7.71875 C 1.542969 5.335938 3.570312 3.429688 6.035156 3.460938 C 7.148438 3.484375 8.207031 3.929688 8.984375 4.703125 C 9.695312 5.378906 10.28125 6.164062 10.722656 7.03125 Z M 12.664062 21.734375 C 12.515625 21.90625 12.300781 22.003906 12.074219 22.003906 C 11.84375 22.003906 11.628906 21.90625 11.480469 21.734375 C 9.488281 19.480469 7.347656 17.34375 5.078125 15.34375 C 1.960938 12.515625 0 10.738281 0 7.71875 C 0.03125 4.527344 2.734375 1.96875 6.035156 2 C 8.140625 2.105469 10.058594 3.199219 11.171875 4.929688 C 11.511719 5.390625 11.8125 5.871094 12.074219 6.375 C 12.332031 5.871094 12.632812 5.386719 12.972656 4.929688 C 14.085938 3.199219 16.003906 2.105469 18.109375 2 C 21.410156 1.96875 24.113281 4.527344 24.144531 7.71875 C 24.144531 10.738281 22.183594 12.519531 19.066406 15.34375 C 16.796875 17.34375 14.660156 19.476562 12.660156 21.734375 Z M 12.664062 21.734375 "/>
</g>
</svg>

<?xml version="1.0" encoding="UTF-8"?>
<svg xmlns="http://www.w3.org/2000/svg" viewBox="0 0 24 24">
    <defs>
        <style>
            .cls-1 {
                fill: currentColor;
            }
        </style>
    </defs>
    <path class="cls-1" fill-rule="evenodd" d="m12.07 9.64 1.35-2.6a8.5 8.5 0 0 1 1.74-2.34 4.4 4.4 0 0 1 7.48 3.02c0 1.77-.84 3.01-2.82 4.92l-1.73 1.59a77.6 77.6 0 0 0-6.02 5.93 78.35 78.35 0 0 0-6.01-5.93 88.5 88.5 0 0 1-1.73-1.6C2.34 10.74 1.5 9.49 1.5 7.73A4.4 4.4 0 0 1 8.98 4.7a8.4 8.4 0 0 1 1.74 2.33Zm.6 12.1a.78.78 0 0 1-1.18 0c-2-2.26-4.14-4.4-6.41-6.4C1.96 12.52 0 10.74 0 7.72A5.88 5.88 0 0 1 6.04 2c2.1.1 4.02 1.2 5.13 2.93.34.46.64.94.9 1.45.26-.5.56-1 .9-1.45A6.48 6.48 0 0 1 18.11 2c3.3-.03 6 2.53 6.03 5.72 0 3.02-1.96 4.8-5.07 7.62-2.27 2-4.41 4.14-6.41 6.4Zm0 0"/>
</svg>
